symbolic/22x22/apps/rpcs3.svg

<svg xmlns="http://www.w3.org/2000/svg" width="22" height="22" version="1">
 <rect style="fill:#e4e4e4" width="20" height="20" x="1" y="1" rx="1.5" ry="1.5"/>
 <path style="opacity:0.2;fill:#ffffff" d="M 2.5,1 C 1.669,1 1,1.669 1,2.5 V 3 C 1,2.169 1.669,1.5 2.5,1.5 h 17 C 20.331,1.5 21,2.169 21,3 V 2.5 C 21,1.669 20.331,1 19.5,1 Z"/>
 <path style="opacity:0.2" d="M 1,19.5 V 20 c 0,0.831 0.669,1.5 1.5,1.5 h 17 C 20.331,21.5 21,20.831 21,20 V 19.5 C 21,20.331 20.331,21 19.5,21 H 2.5 C 1.669,21 1,20.331 1,19.5 Z"/>
 <path style="opacity:0.1;fill:none;stroke:#000000;stroke-width:2;stroke-linejoin:round" d="m 4,11.5 h 11.573585 c 0,0 1.42683,0 1.42683,2 0,2 -1.390962,2 -1.390962,2 H 4 m 0,-8 h 11.573585 c 0,0 1.42683,0 1.42683,2 0,2 -1.390962,2 -1.390962,2 H 4"/>
 <path style="fill:none;stroke:#1f75e6;stroke-width:2;stroke-linejoin:round" d="m 4,11 h 11.573585 c 0,0 1.42683,0 1.42683,2 0,2 -1.390962,2 -1.390962,2 H 4 M 4,7 h 11.573585 c 0,0 1.42683,0 1.42683,2 0,2 -1.390962,2 -1.390962,2 H 4"/>
</svg>

<svg xmlns="http://www.w3.org/2000/svg" width="22" height="22" version="1"><rect style="fill:#e4e4e4" width="20" height="20" x="1" y="1" rx="1.5" ry="1.5"/><path style="opacity:.2;fill:#fff" d="M2.5 1C1.669 1 1 1.669 1 2.5V3c0-.831.669-1.5 1.5-1.5h17c.831 0 1.5.669 1.5 1.5v-.5c0-.831-.669-1.5-1.5-1.5z"/><path style="opacity:.2" d="M1 19.5v.5c0 .831.669 1.5 1.5 1.5h17c.831 0 1.5-.669 1.5-1.5v-.5c0 .831-.669 1.5-1.5 1.5h-17c-.831 0-1.5-.669-1.5-1.5z"/><path style="opacity:.1;fill:none;stroke:#000;stroke-width:2;stroke-linejoin:round" d="M4 11.5h11.574s1.426 0 1.426 2-1.39 2-1.39 2H4m0-8h11.574S17 7.5 17 9.5s-1.39 2-1.39 2H4"/><path style="fill:none;stroke:#1f75e6;stroke-width:2;stroke-linejoin:round" d="M4 11h11.574S17 11 17 13s-1.39 2-1.39 2H4m0-8h11.574S17 7 17 9s-1.39 2-1.39 2H4"/></svg>
